X:131
T:Terry Teahan's
R:polka
D:Dennis Doody: Kerry Music
Z:id:hn-polka-131
M:2/4
L:1/8
K:D
de/d/ BA | B/c/d ef | ab/a/ ge | ed BA |
de/d/ BA | B/c/d ef | ab/a/ ge |1 ed de :|2 ed df ||
|: a2 ag/a/ | ba fd | e/f/a ef | ed BA |
[1 a2 ag/a/ | ba fd | e/f/a ef | ed df :|
[2 de/d/ BA | B/c/d ef | ab/a/ ge | ed de ||

